X: 5
T:The Lasses of the West
M:4/4
L:1/8
B:Thomas Calvert Collection - page 2/3
Z:P Whittaker 2001
K:F
f|c>A ~A/2A/2A A>GF>A|G>ABd cBAf
 |c>A ~A/2A/2A A>GF>A|G>BA>G FD>D||
c|f>g{fg}a>g f>dd>f|c>fA>fc>fAf
 |f>g{fg}a>g f>dd>f|c>Af>A AGGc
 |f>g f/2g/2ag f>dd<f|c>fA>f c>fAf/2g/2
 |a>fg>d f>cd>A|G>BA>G F<DD2||
